outputs/icons/editor/checklist_round.svg

<svg xmlns="http://www.w3.org/2000/svg" width="1200" height="1200" fill="none"><g clip-path="url(#a)"><path fill="#000" d="M1100 400.01c0-27.499-22.5-50-50-50H700c-27.5 0-50 22.501-50 50 0 27.5 22.5 50 50 50h350c27.5 0 50-22.5 50-50m-450 400c0 27.5 22.5 50 50 50h350c27.5 0 50-22.5 50-50s-22.5-50-50-50H700c-27.5 0-50 22.5-50 50M523.5 231.511c19.5 19.499 19.5 51 0 70.499l-211.502 212.5c-19.5 19.5-51 19.5-71 0l-105.999-106.5c-19.501-19.5-19.501-51 0-70.5 19.5-19.499 51-19.499 70.499 0l71 71.001 177-177c19.001-19 51.002-19 70.002 0m.5 400.499c19.5 19.5 19.5 51 0 70.5l-211.501 212.5c-19.501 19.5-51.001 19.5-71 0l-106.5-107c-19.501-19.5-19.501-51 0-70.5 19.5-19.5 51-19.5 70.499 0l71 71 177-177c19.001-19 51.002-19 70.502.5"/></g><defs><clipPath id="a"><path fill="#fff" d="M0 0h1200v1200H0z"/></clipPath></defs></svg>

<svg width="1200" height="1200" viewBox="0 0 1200 1200" fill="none" xmlns="http://www.w3.org/2000/svg"><g clip-path="url(#clip0_238_240)"><path d="M1100.01 400.01C1100.01 372.511 1077.51 350.01 1050.01 350.01H700.01C672.51 350.01 650.01 372.511 650.01 400.01C650.01 427.51 672.51 450.01 700.01 450.01H1050.01C1077.51 450.01 1100.01 427.51 1100.01 400.01ZM650.01 800.01C650.01 827.51 672.51 850.01 700.01 850.01H1050.01C1077.51 850.01 1100.01 827.51 1100.01 800.01C1100.01 772.51 1077.51 750.01 1050.01 750.01H700.01C672.51 750.01 650.01 772.51 650.01 800.01ZM523.51 231.511C543.01 251.01 543.01 282.511 523.51 302.01L312.011 514.51C292.51 534.01 261.011 534.01 241.011 514.51L135.011 408.01C115.511 388.51 115.511 357.01 135.011 337.51C154.511 318.011 186.01 318.011 205.511 337.51L276.511 408.511L453.51 231.511C472.511 212.511 504.51 212.511 523.51 231.511ZM524.01 632.01C543.51 651.51 543.51 683.01 524.01 702.51L312.51 915.01C293.011 934.51 261.51 934.51 241.511 915.01L135.011 808.01C115.511 788.51 115.511 757.01 135.011 737.51C154.511 718.01 186.01 718.01 205.511 737.51L276.511 808.51L453.51 631.51C472.511 612.51 504.51 612.51 524.01 632.01Z" fill="#1D1E23"/></g><defs><clipPath id="clip0_238_240"><path width="24" fill="white" d="M0 0H1200V1200H0V0z"/></clipPath></defs></svg>
